X: 20850
T: Johnstown Castle
R: reel
M: 4/4
K: Cmajor
|:z G,|~C3 D ECEG|cBcd edcB|cA G/F/E AEGE|FEDC B,G,A,B,|
~C3 D ECEG|cC E/F/G edcB|cA G/F/E AEGE|1 DC B,/C/D C2:|2 DC B,/C/D CDEG|
|:cBcd e/d/c eg|aege fedc|BG G/^F/G Bcde|fd d/c/d edBd|
c3 d eceg|aege fedc|BG G/A/G A/B/c de|1 fGBd cGAB:|2 fGBd cA G/F/E|C4

